X:34
T:Hark the Glad Sound
%%stretchlast false
M:3/4
L:1/4
K:Eb clef=C1
"^I"[E,B,EGB] "^I²"[B,EGBe] [B,EBg] | "^V"[B,DFBb]2 "^V7"[B,Fda] | "^vi7³"[B,CEeg] "^ii¹"[A,B,Fca] "^V"[E,B,DBf]/ [E,B,DAf]/ | [E,A,EGe]2 "^I"[EBg] | "^V¹"[DFBf] [G,FBb] "^II7¹"[=A,Fce] | "^V"[B,FBd] "^vi¹"[E,Gce] "^II7"[F,E=Ac] | "^V"[B,DB]2 [B,DBf] | "^I²"[B,EBg] "^♯iii"[B,Acf] "^I²"[B,GBe] | "^♯iii"[B,Fca]/ "^V7"[B,Fda]/ "^I²"[B,Beg] "^V7³"[ABdf] | "^I¹"[GBeb]/ "^iii"[GBb]/ "^ii"[FBca]/ "^V7²"[FBda]/ "^I"[EBeg]/ "^I7"[EB_dg]/ | "^vi+"[A,Acc']2 "^I¹"[G,Be] | "^vi+"[A,Ac]/ [A,Gc]/ "^V7"[B,Fda] "^vi"[CEeg] | "^ii¹"[A,Acf] "^I²"[B,GBe] "^V7"[B,FAd] | "^I"[E,EGe]3 |]
